X: 65
T: Arthur
C: Eric Thézé
R: mazurka
M: 3/4
K: Dm
L: 1/8
S: https://www.erictheze.com/wp-content/uploads/2024/05/Arthur-Parties.pdf
V:1
fe|: "Dm9" d3 A fd| "Am9"e4 fe| "Bb9" d2 c2 B2 | "Fmaj7"A4 GA |
"Gm7"B4 AG | "Dm9"F4 F2 | "Gm7"F4 G2|1 "A7"E4 fe :|2 "A7"E4 DE ||
|: "Bb9"F4 AF| "C9"E4 DE| "Gm9"F2 A2 z F| "Am9"E4 DE |
"Bb9"F2 A2 F2| "C9"E2 D2 C2 | "Dm9"D6-|1 "Dm9"D4 DE :|2 "Dm9"E6-|E4 |]
V:2
z2|: f6 | g6 | f2 e2 d2 | c4 A2 |
 Bc d4 | A6| B4 d2 |1 ^cdeAfe :|2 ^c4 de||
|: d4 fd| c4 Ac | d2 f2 zd| c4 Ac|
d2 f2 d2| c2 e2 f2 |1 d6-|d4 Ac:|2 e6-|e4|]

